!!!OTL: O Soldat (3-35), S. 110
!!!id: P1007
**kern
*clefG2
*k[f#c#]
*D:
{8d
=1
8d
4d
4f#
=2
4.a
8b
=3
2a
=4
8g
8a
4b
=5
4a
8a
8g
=6
2f#}
=7
4r
=8
{8f#
8e
=9
4d
4f#
=10
4.a
8b
=11
2a
=12
8g
8a
4b
=13
4a
8a
8g
=14
2f#}
=15
4r
=16
{8f#
8e
=17
2d
=18
4g
4b
=19
4dd
4dd
=20
8cc#
8cc#
4b
=21
4.a
8f#
=22
2a}
=23
{2dd
=24
4cc#
4b
=25
2e
=26
2b
=27
4a
8a
8g
=28
2f#}
==
*-
!!!minrhy: 8
!!!meters: 2/4 ]  ZZ[4
!!!cut: O Soldat (3-35), S. 110
!!!reg: Lothringen
!!!trd: PINCK, Louis: Verklingende Weisen, Bd3, Metz 1933
!!!rhy1:   X_X_  X_.X  X__  XXX_  X_XX  X__  0_
!!!rhy2: XX  X_X_  X_.X  X__  XXX_  X_XX  X__  0_
!!!key: P1007  08  D 2/4 ]  ZZ[4
!!!mod: HEPTATONIK IONISCH]  AMBITUS[8
!!!kad: 3353
!!!akz: 155453_155453_14+1755_+172653_
!!!fot: 'a__av_b__c__  ANA: a__b__c__d__ 
!!!for: 'a__av_b__c__
!!!fok: '^a_S__Wa_\__
!! PHRAS[GEMISCHTTAKTIG]
!!!fkt: Soldatenlied
!! LOTH VKL
!! PR[28] 2K[2] 2G[7] 3K[5] 3G[7] 4A[2] 4Ü[0] 5A[7] 6K[0] 6G[0]
!! 7K[0] 7G[0] 8A[0] MEHR[0] SI[30] ABS[43] SR[9] SP[21]
!! ST[12] 2k[2] 2g[21] 3k[12] 3g[7] 4d[0] 4ü[0] 5d[0] 6k[0] 6g[0]
!! 7k[0] 7g[0] 8d[0] mehr[0] si[42] dm[-12] sr[23] sp[19]
!! 1F[9] 2F[83] 3F[9] 4F[0] LF[0] 2P[0] 3P[0] 4P[0] TRI[0] DF[3] AB[46]
!! TF[0] U3K[0] U3[0] U4[0] U4Ü[0] U5[2] U6K[0] U6[0] U7K[0] U7[2]
!! N1[18] N2K[0] N2[14] N3K[0] N3[11] N4[14] N4Ü[0] N5[23] N6K[0] N6[16]
!!!n7k: 0] N7[0] O1[0] O2K[0] O2[0] O3K[0] O3[0] HÖ[0
